src/android-done-all.svg

<?xml version="1.0" encoding="utf-8"?>
<!-- Generated by IcoMoon.io -->
<!DOCTYPE svg PUBLIC "-//W3C//DTD SVG 1.1//EN" "http://www.w3.org/Graphics/SVG/1.1/DTD/svg11.dtd">
<svg version="1.1" xmlns="http://www.w3.org/2000/svg" xmlns:xlink="http://www.w3.org/1999/xlink" width="512" height="512" viewBox="0 0 512 512">
<path fill="#000000" d="M387.581 139.712l-30.826-30.712-139.842 139.319 30.831 30.719 139.837-139.326zM481.172 109l-233.428 231.469-91.39-91.051-30.827 30.715 122.217 122.867 264.256-263.288-30.828-30.712zM0 280.133l123.321 122.867 30.829-30.713-122.216-122.869-31.934 30.715z"></path>
</svg>

<?xml version="1.0" encoding="utf-8"?>
<!-- Generator: Adobe Illustrator 16.2.1, SVG Export Plug-In . SVG Version: 6.00 Build 0)  -->
<!DOCTYPE svg PUBLIC "-//W3C//DTD SVG 1.1//EN" "http://www.w3.org/Graphics/SVG/1.1/DTD/svg11.dtd">
<svg version="1.1" id="Layer_1" xmlns="http://www.w3.org/2000/svg" xmlns:xlink="http://www.w3.org/1999/xlink" x="0px" y="0px"
	 width="512px" height="512px" viewBox="0 0 512 512" enable-background="new 0 0 512 512" xml:space="preserve">
<g id="Icon_4_">
	<g>
		<path d="M387.581,139.712L356.755,109L216.913,248.319l30.831,30.719L387.581,139.712z M481.172,109L247.744,340.469
			l-91.39-91.051l-30.827,30.715L247.744,403L512,139.712L481.172,109z M0,280.133L123.321,403l30.829-30.713L31.934,249.418
			L0,280.133z"/>
	</g>
</g>
</svg>
